X:20
T:Hora de la Titu
O:rumania
S:presented by Mihai & Alexandru David
L: 1/8
M: 2/4
K:Bb
Q:1/4=240
|:EEB,2|GGE2|ABAB|_A4|ABcB|ABcB|ABAB|_A2G2|
EEB,2|GGE2|ABAB|_A4|B_AAG|GFFE|FGFE|[1F4:|[2E4|
|:e2d2|_d2c2|edBc|_A4|BcBc|BcBc|BcBc|_A4|
BccB|e_ddc|c_dcB|_A4|B_AAG|GFF=E|FGF=E|F4:|
A2B2|E2G2|_A2B2|_A4|A2B2|E2G2|_A2B2|_A4|_ABA2|B_AAG|GFF=E|FGF=E|F4:|
